svgs/sharp-regular/image-landscape.svg

<svg xmlns="http://www.w3.org/2000/svg" viewBox="0 0 576 512"><!--! Font Awesome Pro 6.6.0 by @fontawesome - https://fontawesome.com License - https://fontawesome.com/license (Commercial License) Copyright 2024 Fonticons, Inc. --><path d="M48 112l0 288 35.8 0 80.8-110.2L184 263.4l19.4 26.4L232.8 330l83.1-127.1L336 172.1l20.1 30.7L485 400l43 0 0-288L48 112zm.6 336l-.6 0L0 448l0-48L0 112 0 64l48 0 480 0 48 0 0 48 0 288 0 48-48 0-11.6 0L472 448l-152.6 0L272 448l-72 0-44.4 0L96 448l-47.4 0zM160 160a32 32 0 1 1 0 64 32 32 0 1 1 0-64z"/></svg>

<svg xmlns="http://www.w3.org/2000/svg" viewBox="0 0 576 512"><!--! Font Awesome Pro 6.4.0 by @fontawesome - https://fontawesome.com License - https://fontawesome.com/license (Commercial License) Copyright 2023 Fonticons, Inc. --><path d="M48 112V400H83.8l80.8-110.2L184 263.4l19.4 26.4L232.8 330l83.1-127.1L336 172.1l20.1 30.7L485 400h43V112H48zm.6 336H48 0V400 112 64H48 528h48v48V400v48H528 516.4 472 319.4 272 200 155.6 96 48.6zM160 160a32 32 0 1 1 0 64 32 32 0 1 1 0-64z"/></svg>
